X: 38
T: Snow Deer
L:1/8
M:C
S: Viola "Mom" Ruth - Pioneer Western Folk Tunes (1948)
K:G
D2G2A2||B2 B^A B2 B^A|B2G2F2G2|A2 A^G A2A^G|\
A2G2F2E2|D4(A4|A2)GG F2E2|D4 (B4|B2)D2G2A2|\
B2 B^A B2B^A|B2G2F2G2|A2A^G A2A^G|A2G2F2E2|\
D4(A4|A2)GG A2B2|(G4 G3)G||A2B2c4|E6G2|F2E2D4|B8|\
B3c B2A2|A2^G2A4|A3B A2G2|G2F2G2G2|A2B2c4|E6G2|\
F2E2D4|B8|B3c B2A2|A2^G2A2c2|B2A2(G4|G2)||

%%sep 1 1 500
